public/tech/meta.svg

<?xml version="1.0" encoding="UTF-8"?>
<svg width="512px" height="104px" viewBox="0 0 512 104" version="1.1" xmlns="http://www.w3.org/2000/svg" preserveAspectRatio="xMidYMid">
    <title>Meta</title>
    <defs>
        <linearGradient x1="13.8784354%" y1="55.9337491%" x2="89.143574%" y2="58.6936324%" id="linearGradient-1">
            <stop stop-color="#0064E1" offset="0%"></stop>
            <stop stop-color="#0064E1" offset="40%"></stop>
            <stop stop-color="#0073EE" offset="83%"></stop>
            <stop stop-color="#0082FB" offset="100%"></stop>
        </linearGradient>
        <linearGradient x1="54.3150272%" y1="82.782443%" x2="54.3150272%" y2="39.3067715%" id="linearGradient-2">
            <stop stop-color="#0082FB" offset="0%"></stop>
            <stop stop-color="#0064E0" offset="100%"></stop>
        </linearGradient>
    </defs>
    <g>
        <path d="M16.7750211,68.0290295 C16.7750211,73.9591561 18.0766245,78.5120675 19.7778903,81.2664979 C22.0084388,84.8742616 25.3353586,86.4027004 28.7270886,86.4027004 C33.1017722,86.4027004 37.1037975,85.3171308 44.8162025,74.6504641 C50.9947679,66.1009283 58.2751055,54.1002532 63.1736709,46.5768776 L71.4693671,33.8308861 C77.2320675,24.978903 83.9021097,15.1385654 91.5497046,8.46852321 C97.7930802,3.02447257 104.527932,0 111.305992,0 C122.68557,0 133.525063,6.59443038 141.820759,18.9623629 C150.899578,32.5076793 155.306667,49.5689451 155.306667,67.1756962 C155.306667,77.6425316 153.243544,85.3333333 149.732996,91.4092827 C146.341266,97.2854008 139.730633,103.156118 128.610295,103.156118 L128.610295,86.4027004 C138.131983,86.4027004 140.508354,77.6533333 140.508354,67.6401688 C140.508354,53.3711392 137.181435,37.535865 129.852489,26.221097 C124.651477,18.195443 117.911224,13.2914768 110.495865,13.2914768 C102.475612,13.2914768 96.0216034,19.3404219 88.76827,30.1259072 C84.9120675,35.8562025 80.9532489,42.8394937 76.5083544,50.7193249 L71.6151899,59.3876793 C61.785654,76.8162025 59.295865,80.7858228 54.381097,87.3370464 C45.7667511,98.8084388 38.4108017,103.156118 28.7270886,103.156118 C17.2394937,103.156118 9.97535865,98.1819409 5.4764557,90.6855696 C1.80388186,84.5772152 0,76.5623629 0,67.4295359 L16.7750211,68.0290295 Z" fill="#0081FB"></path>
        <path d="M13.2266667,20.1451477 C20.9174684,8.29029536 32.0162025,0 44.7459916,0 C52.1181435,0 59.4470886,2.18194093 67.1000844,8.4307173 C75.4713924,15.2627848 84.3935865,26.5127426 95.5247257,45.0538397 L99.5159494,51.7076793 C109.151055,67.7589873 114.632911,76.0168776 117.841013,79.9108861 C121.967257,84.9120675 124.856709,86.4027004 128.610295,86.4027004 C138.131983,86.4027004 140.508354,77.6533333 140.508354,67.6401688 L155.306667,67.1756962 C155.306667,77.6425316 153.243544,85.3333333 149.732996,91.4092827 C146.341266,97.2854008 139.730633,103.156118 128.610295,103.156118 C121.697215,103.156118 115.572658,101.654684 108.8,95.2654852 C103.593586,90.361519 97.5068354,81.6499578 92.8243038,73.8187342 L78.8955274,50.5518987 C71.9068354,38.8752743 65.4960338,30.1691139 61.785654,26.2264979 C57.7944304,21.9868354 52.6636287,16.8668354 44.4759494,16.8668354 C37.8491139,16.8668354 32.2214346,21.516962 27.5118987,28.6298734 L13.2266667,20.1451477 Z" fill="url(#linearGradient-1)"></path>
        <path d="M44.4759494,16.8668354 C37.8491139,16.8668354 32.2214346,21.516962 27.5118987,28.6298734 C20.8526582,38.6808439 16.7750211,53.6519831 16.7750211,68.0290295 C16.7750211,73.9591561 18.0766245,78.5120675 19.7778903,81.2664979 L5.4764557,90.6855696 C1.80388186,84.5772152 0,76.5623629 0,67.4295359 C0,50.8219409 4.55831224,33.5122363 13.2266667,20.1451477 C20.9174684,8.29029536 32.0162025,0 44.7459916,0 L44.4759494,16.8668354 Z" fill="url(#linearGradient-2)"></path>
        <path d="M187.916962,3.2621097 L207.322194,3.2621097 L240.315949,62.9522363 L273.315105,3.2621097 L292.299072,3.2621097 L292.299072,101.341435 L276.469198,101.341435 L276.469198,26.1724895 L247.531477,78.2258228 L232.679156,78.2258228 L203.746835,26.1724895 L203.746835,101.341435 L187.916962,101.341435 L187.916962,3.2621097 Z M341.900422,39.8312236 C330.547848,39.8312236 323.71038,48.3753586 322.073924,58.9556118 L360.603544,58.9556118 C359.80962,48.0567089 353.523038,39.8312236 341.900422,39.8312236 Z M306.379072,64.9829536 C306.379072,42.7206751 320.76692,26.5181435 342.175865,26.5181435 C363.233755,26.5181435 375.80692,42.515443 375.80692,66.1711392 L375.80692,70.5188186 L322.073924,70.5188186 C323.980422,82.0280169 331.617215,89.7836287 343.931139,89.7836287 C353.755274,89.7836287 359.896034,86.7861603 365.718143,81.3043038 L374.127257,91.6037131 C366.204219,98.8894515 356.126245,103.091308 343.369451,103.091308 C320.19443,103.091308 306.379072,86.1920675 306.379072,64.9829536 Z M395.001519,41.235443 L380.430042,41.235443 L380.430042,28.2734177 L395.001519,28.2734177 L395.001519,6.83746835 L410.275105,6.83746835 L410.275105,28.2734177 L432.413165,28.2734177 L432.413165,41.235443 L410.275105,41.235443 L410.275105,74.0887764 C410.275105,85.3063291 413.861266,89.2921519 422.675443,89.2921519 C426.699072,89.2921519 429.005232,88.9464979 432.413165,88.3794093 L432.413165,101.201013 C428.168101,102.4 424.117468,102.950886 419.731983,102.950886 C403.243207,102.950886 395.001519,93.9422785 395.001519,75.9088608 L395.001519,41.235443 Z M496.726414,53.8410127 C493.658734,46.0962025 486.815865,40.3929114 476.759494,40.3929114 C463.689451,40.3929114 455.323544,49.6661603 455.323544,64.7723207 C455.323544,79.5004219 463.025148,89.2219409 476.132996,89.2219409 C486.437806,89.2219409 493.793755,83.2270042 496.726414,75.7684388 L496.726414,53.8410127 Z M512,101.341435 L497.007257,101.341435 L497.007257,91.1122363 C492.816203,97.1341772 485.190211,103.091308 472.838481,103.091308 C452.974177,103.091308 439.698903,86.4621097 439.698903,64.7723207 C439.698903,42.8772996 453.292827,26.5181435 473.681013,26.5181435 C483.758987,26.5181435 491.665823,30.547173 497.007257,37.6600844 L497.007257,28.2734177 L512,28.2734177 L512,101.341435 Z" fill="#192830"></path>
    </g>
</svg>

<svg xmlns="http://www.w3.org/2000/svg" width="512" height="104" preserveAspectRatio="xMidYMid" viewBox="0 0 512 104"><title>Meta</title><defs><linearGradient id="a" x1="13.878%" x2="89.144%" y1="55.934%" y2="58.694%"><stop offset="0%" stop-color="#0064e1"/><stop offset="40%" stop-color="#0064e1"/><stop offset="83%" stop-color="#0073ee"/><stop offset="100%" stop-color="#0082fb"/></linearGradient><linearGradient id="b" x1="54.315%" x2="54.315%" y1="82.782%" y2="39.307%"><stop offset="0%" stop-color="#0082fb"/><stop offset="100%" stop-color="#0064e0"/></linearGradient></defs><path fill="#0081fb" d="M16.775 68.029c0 5.93 1.302 10.483 3.003 13.237 2.23 3.608 5.557 5.137 8.95 5.137 4.374 0 8.376-1.086 16.088-11.753 6.179-8.55 13.46-20.55 18.358-28.073l8.295-12.746c5.763-8.852 12.433-18.692 20.08-25.362C97.794 3.024 104.529 0 111.307 0c11.38 0 22.22 6.594 30.515 18.962 9.079 13.546 13.486 30.607 13.486 48.214 0 10.467-2.063 18.157-5.574 24.233-3.392 5.876-10.002 11.747-21.123 11.747V86.403c9.522 0 11.898-8.75 11.898-18.763 0-14.269-3.327-30.104-10.656-41.419-5.2-8.026-11.94-12.93-19.356-12.93-8.02 0-14.474 6.05-21.728 16.835-3.856 5.73-7.815 12.713-12.26 20.593l-4.893 8.669c-9.83 17.428-12.32 21.398-17.234 27.949-8.614 11.471-15.97 15.82-25.654 15.82-11.488 0-18.752-4.975-23.25-12.471C1.803 84.577 0 76.562 0 67.43z"/><path fill="url(#a)" d="M13.227 20.145C20.917 8.29 32.017 0 44.746 0 52.118 0 59.447 2.182 67.1 8.43c8.371 6.833 17.294 18.083 28.425 36.624l3.99 6.654c9.636 16.051 15.118 24.309 18.326 28.203 4.126 5.001 7.016 6.492 10.77 6.492 9.521 0 11.897-8.75 11.897-18.763l14.799-.464c0 10.467-2.063 18.157-5.574 24.233-3.392 5.876-10.002 11.747-21.123 11.747-6.913 0-13.037-1.501-19.81-7.89-5.206-4.904-11.293-13.616-15.976-21.447L78.896 50.552c-6.99-11.677-13.4-20.383-17.11-24.326-3.992-4.24-9.122-9.36-17.31-9.36-6.627 0-12.255 4.651-16.964 11.764z"/><path fill="url(#b)" d="M44.476 16.867c-6.627 0-12.255 4.65-16.964 11.763-6.66 10.05-10.737 25.022-10.737 39.399 0 5.93 1.302 10.483 3.003 13.237l-14.302 9.42C1.804 84.577 0 76.562 0 67.43c0-16.608 4.558-33.918 13.227-47.285C20.917 8.29 32.017 0 44.746 0z"/><path fill="#192830" d="M187.917 3.262h19.405l32.994 59.69 33-59.69h18.983v98.08h-15.83v-75.17l-28.938 52.054H232.68l-28.932-52.054v75.17h-15.83zM341.9 39.832c-11.352 0-18.19 8.543-19.826 19.124h38.53c-.794-10.9-7.081-19.125-18.704-19.125m-35.52 25.151c0-22.262 14.387-38.465 35.796-38.465 21.058 0 33.63 15.997 33.63 39.653v4.348h-53.732c1.906 11.509 9.543 19.265 21.857 19.265 9.824 0 15.965-2.998 21.787-8.48l8.41 10.3c-7.924 7.285-18.002 11.487-30.759 11.487-23.175 0-36.99-16.899-36.99-38.108m88.622-23.748H380.43V28.273h14.572V6.837h15.273v21.436h22.138v12.962h-22.138V74.09c0 11.217 3.586 15.203 12.4 15.203 4.024 0 6.33-.346 9.738-.913v12.822c-4.245 1.199-8.296 1.75-12.681 1.75-16.489 0-24.73-9.009-24.73-27.042zM496.725 53.84c-3.067-7.745-9.91-13.448-19.967-13.448-13.07 0-21.435 9.273-21.435 24.38 0 14.727 7.701 24.449 20.809 24.449 10.305 0 17.66-5.995 20.593-13.454zm15.274 47.5h-14.993V91.112c-4.19 6.022-11.817 11.98-24.169 11.98-19.864 0-33.14-16.63-33.14-38.32 0-21.895 13.595-38.254 33.983-38.254 10.078 0 17.985 4.03 23.326 11.142v-9.387H512z"/></svg>
